X:95
T:Floating Crowbar, The
R:reel
Z:Transcribed by Dave Marshall
M:C|
K:D
|: AD (3FED ADBD | AD (3FED A2GF | E~G3 AGFG | E~G3 GABd |
AD (3FED ADBD | AD (3FED G2FG | A^GAB cded |1 cAGE D2dB :|2 cAGE D2 (3EFG
|: Addc d2 (3Bcd | eaag efge | A3B AGFG | (3ABA GF EFGE |
Addc d2cd | eaag efge | afge dfed |1 cAGE D2 (3EFG :|2 cAGE D2dB ||
